X:1 
T:Australian Waters #1
R:jig
Z:C. McGrew from M.Bogner's transcription of Altan
M:6/8
Q:3/8=120
K:D
e |dDD FED| =ccc ed^c| dAF GFE| FED fge|
dDD FED| =cBc ed^c| dAF GFE| FDC DF :| 
A | dcd efg| fed cBA| dcd efg| fdc def|
gbg faf| ecA ABc| dAF AFD| FDC DFA :|
